X: 1
T: Dusty Miller's Jig
R: slipjig
B: Cole p.66
Z: John Chambers <jc:trillian.mit.edu>
N: A "Dusty Miller" is a moth that's common in the British Isles.
M: 9/8
L: 1/8
K: G
|: "G"B2d "D"c2A "Em"BAG | "Am"E2A A2B "D"cBA | "G"B2d "D"c2A "G"BAG | "D"D2F    G2A "G"BAG :|
|: "G"B2d "D"e2f "Em"g3  | "Am"a2A A2B "D"cBA | "G"Bcd "D"e2f "G"g2a | "C"g2e "D"d2c "G"BAG :|
